svgs/sharp-solid/4.svg

<svg xmlns="http://www.w3.org/2000/svg" viewBox="0 0 384 512"><!--! Font Awesome Pro 6.6.0 by @fontawesome - https://fontawesome.com License - https://fontawesome.com/license (Commercial License) Copyright 2024 Fonticons, Inc. --><path d="M209.8 32l-69.4 0L18.5 323.7-.1 368 48 368l208 0 0 80 0 32 64 0 0-32 0-80 32 0 32 0 0-64-32 0-32 0 0-144 0-32-64 0 0 32 0 144L96.1 304 205.5 42.3 209.8 32z"/></svg>

<svg xmlns="http://www.w3.org/2000/svg" viewBox="0 0 384 512"><!--! Font Awesome Pro 6.4.2 by @fontawesome - https://fontawesome.com License - https://fontawesome.com/license (Commercial License) Copyright 2023 Fonticons, Inc. --><path d="M209.9 32H140.5L18.5 323.7-.1 368H48 256v80 32h64V448 368h32 32V304H352 320V160 128H256v32V304H96.1L205.5 42.3 209.9 32z"/></svg>
